_uploads/ornament-cherry-blossom.svg

<svg width="40" height="38" viewBox="0 0 40 38" fill="none" xmlns="http://www.w3.org/2000/svg">
<path fill-rule="evenodd" clip-rule="evenodd" d="M25.5348 0C23.6599 1.36071 22.4312 2.14286 19.9526 2.14286C17.474 2.14286 16.2559 1.33929 14.381 0C13.2398 1.08003 12.3332 2.38834 11.7187 3.84181C11.1975 5.07442 10.8961 6.38859 10.8265 7.72361C9.82687 7.57674 8.80932 7.5603 7.80041 7.6767C6.2114 7.86003 4.67914 8.3688 3.30251 9.17017C4.06047 11.3521 4.48275 12.7676 3.74646 15.1518C3.01016 17.5359 1.8624 18.4831 0 19.8881C0.701177 21.2997 1.69401 22.5522 2.91515 23.5656C3.57744 24.1152 4.29901 24.588 5.06536 24.9762C4.80772 25.6606 4.61489 26.3704 4.49059 27.0961C4.22268 28.6602 4.27904 30.2637 4.65605 31.8044C6.95298 31.7078 8.41371 31.7185 10.4884 33.0929C12.563 34.4673 13.1452 35.8525 13.9708 38C15.5132 37.7356 16.9846 37.1485 18.2912 36.276C18.906 35.8653 19.4781 35.3957 20 34.8747C20.5219 35.3957 21.094 35.8653 21.7089 36.276C23.0155 37.1485 24.4868 37.7356 26.0292 38C26.8548 35.8525 27.437 34.4673 29.5116 33.0929C31.5863 31.7185 33.047 31.7078 35.3439 31.8044C35.721 30.2637 35.7773 28.6602 35.5094 27.0961C35.3851 26.3704 35.1923 25.6606 34.9346 24.9762C35.701 24.588 36.4226 24.1152 37.0849 23.5656C38.306 22.5522 39.2988 21.2997 40 19.8881C38.1376 18.4831 36.9898 17.5359 36.2535 15.1518C35.5172 12.7676 35.9395 11.3521 36.6975 9.17017C35.3209 8.3688 33.7886 7.86003 32.1996 7.6767C31.1892 7.56013 30.1702 7.57679 29.1692 7.72425C29.0901 6.38335 28.7772 5.06518 28.2431 3.83122C27.6138 2.37738 26.6913 1.07246 25.5348 0ZM34.541 24.0544C35.2194 23.7054 35.8585 23.2838 36.4462 22.7961C37.3486 22.0472 38.1137 21.1559 38.7112 20.1612C38.0583 19.6505 37.4623 19.1384 36.9467 18.5396C36.2355 17.7137 35.7022 16.7555 35.2981 15.4468C34.8938 14.1378 34.7957 13.0474 34.922 11.9688C35.0135 11.1873 35.2215 10.4344 35.4773 9.65327C34.4138 9.1397 33.2668 8.80646 32.085 8.67011C31.1166 8.55839 30.1397 8.58056 29.1822 8.73397C28.9798 13.0231 24.363 16.7084 21.7529 18.4579C24.8152 18.4362 31.2898 18.8707 33.788 22.7204C34.0689 23.1484 34.3203 23.5942 34.541 24.0544ZM20.5808 19.8109C20.6374 19.6898 20.6896 19.5807 20.7363 19.4845C21.003 19.4721 21.3576 19.4604 21.7791 19.4577C22.7705 19.4514 24.1202 19.4948 25.5635 19.6914C28.5348 20.096 31.5457 21.1021 32.9491 23.2648L32.9519 23.2691C33.2048 23.6543 33.4315 24.0554 33.631 24.4694C33.3042 24.6002 32.9703 24.715 32.6303 24.8131L32.6217 24.8156L32.6131 24.8183C30.1328 25.583 27.1145 24.4037 24.5113 22.783C23.2474 21.9961 22.1547 21.1513 21.3766 20.5013C21.0512 20.2294 20.7824 19.993 20.5808 19.8109ZM18.6987 21.7302C16.0885 23.8081 11.1762 27.033 7.09228 25.7739C6.71374 25.6646 6.34196 25.5364 5.97829 25.3901C5.75448 25.9961 5.58608 26.6237 5.47623 27.2649C5.277 28.4281 5.27405 29.6151 5.46557 30.7756C6.28373 30.7563 7.05981 30.7751 7.83095 30.9125C8.8936 31.1018 9.90408 31.5063 11.0406 32.2593C12.1821 33.0154 12.9483 33.8012 13.5379 34.7139C13.9648 35.3747 14.2875 36.0865 14.5932 36.846C15.7085 36.5616 16.7711 36.0885 17.7358 35.4443C18.3079 35.0623 18.8395 34.6241 19.3234 34.137C19.0039 33.7562 18.7086 33.3538 18.4398 32.9319C16.363 29.7247 17.5305 24.8992 18.6987 21.7302ZM20 33.3861C19.7427 33.0709 19.5032 32.7399 19.2832 32.3945L19.2792 32.3883C17.8727 30.2164 18.1646 27.0034 18.9872 24.0724C19.2949 22.9758 19.663 21.9673 20 21.1409C20.337 21.9673 20.7051 22.9758 21.0128 24.0724C21.8354 27.0034 22.1273 30.2164 20.7208 32.3883L20.7168 32.3945C20.4968 32.7399 20.2573 33.0709 20 33.3861ZM20.6766 34.137C20.9961 33.7562 21.2914 33.3538 21.5602 32.9319C23.637 29.7247 22.4695 24.8992 21.3013 21.7302C23.9115 23.8081 28.8238 27.033 32.9077 25.7739C33.2863 25.6646 33.658 25.5364 34.0217 25.3901C34.2455 25.9961 34.4139 26.6237 34.5238 27.2649C34.723 28.4281 34.7259 29.6151 34.5344 30.7756C33.7163 30.7563 32.9402 30.7751 32.1691 30.9125C31.1064 31.1018 30.0959 31.5063 28.9594 32.2593C27.8179 33.0154 27.0517 33.8012 26.4621 34.7139C26.0352 35.3747 25.7125 36.0865 25.4068 36.846C24.2915 36.5616 23.2289 36.0885 22.2642 35.4443C21.6921 35.0623 21.1605 34.6241 20.6766 34.137ZM18.6234 20.5013C18.9488 20.2294 19.2176 19.993 19.4192 19.8109C19.3626 19.6898 19.3104 19.5807 19.2637 19.4845C18.997 19.4721 18.6424 19.4604 18.2209 19.4577C17.2295 19.4514 15.8798 19.4948 14.4365 19.6914C11.4652 20.096 8.45428 21.1021 7.0509 23.2648L7.04807 23.2691C6.79523 23.6543 6.5685 24.0554 6.36903 24.4694C6.69578 24.6002 7.02973 24.715 7.3697 24.8131L7.37832 24.8156L7.3869 24.8183C9.86724 25.583 12.8855 24.4037 15.4887 22.783C16.7526 21.9961 17.8453 21.1513 18.6234 20.5013ZM6.21204 22.7204C8.70796 18.8741 15.1734 18.437 18.239 18.4578C15.6319 16.7083 11.0205 13.0231 10.8183 8.73406C9.8607 8.58057 8.88353 8.55837 7.91503 8.67011C6.73317 8.80646 5.58619 9.1397 4.52273 9.65327C4.77849 10.4344 4.98652 11.1873 5.07804 11.9688C5.20435 13.0474 5.10622 14.1378 4.70193 15.4468C4.29777 16.7555 3.7645 17.7137 3.05328 18.5396C2.53771 19.1384 1.94168 19.6505 1.28879 20.1612C1.88632 21.1559 2.65135 22.0472 3.55377 22.7961C4.14145 23.2838 4.78056 23.7054 5.45898 24.0544C5.67967 23.5942 5.93111 23.1484 6.21204 22.7204ZM28.1778 7.91458C28.1188 6.64469 27.8303 5.39516 27.3253 4.22844C26.8588 3.15056 26.216 2.16292 25.426 1.30613C24.7481 1.77778 24.0867 2.19048 23.3647 2.50055C22.3726 2.92661 21.3089 3.14286 19.9526 3.14286C18.5925 3.14286 17.5307 2.9199 16.5423 2.49101C15.828 2.18103 15.172 1.77067 14.5005 1.30774C13.7242 2.16782 13.0945 3.15571 12.6397 4.23123C12.146 5.39891 11.8682 6.64711 11.8188 7.91379C12.0569 7.97024 12.2934 8.03427 12.5279 8.10584C16.7812 9.36465 19.0539 14.9984 20 18.0883C20.9461 14.9984 23.2188 9.36465 27.4721 8.10584C27.7056 8.0346 27.9409 7.97084 28.1778 7.91458ZM21.199 17.6253C21.449 16.8825 21.7644 16.046 22.1517 15.1902C23.3978 12.4369 25.2423 9.80865 27.7559 9.06472L27.764 9.06233L27.764 9.06229C27.8968 9.02177 28.0303 8.9839 28.1643 8.94867C27.9296 11.362 26.0585 13.6813 23.934 15.5381C22.9628 16.3869 21.988 17.0963 21.199 17.6253ZM16.0617 15.5385C17.0358 16.3908 18.0135 17.1026 18.8033 17.6323C18.553 16.8877 18.2368 16.0486 17.8483 15.1902C16.6022 12.4369 14.7577 9.80865 12.2441 9.06472L12.236 9.06233L12.236 9.06229C12.1034 9.02182 11.9701 8.98399 11.8362 8.94881C12.0707 11.3625 13.9399 13.6819 16.0617 15.5385Z" fill="black"/>
</svg>

<svg width="40" height="38" fill="none" xmlns="http://www.w3.org/2000/svg"><path fill-rule="evenodd" clip-rule="evenodd" d="M25.535 0c-1.875 1.36-3.104 2.143-5.582 2.143-2.479 0-3.697-.804-5.572-2.143a11.4 11.4 0 0 0-2.662 3.842 11.507 11.507 0 0 0-.893 3.882c-1-.147-2.017-.164-3.026-.047A11.58 11.58 0 0 0 3.303 9.17c.757 2.182 1.18 3.598.443 5.982C3.01 17.536 1.862 18.483 0 19.888a11.333 11.333 0 0 0 2.915 3.678c.662.55 1.384 1.022 2.15 1.41a11.585 11.585 0 0 0-.41 6.828c2.298-.096 3.759-.086 5.833 1.289 2.075 1.374 2.657 2.76 3.483 4.907a11.182 11.182 0 0 0 4.32-1.724c.615-.41 1.187-.88 1.709-1.401.522.52 1.094.99 1.709 1.401A11.181 11.181 0 0 0 26.029 38c.826-2.148 1.408-3.533 3.483-4.907 2.074-1.375 3.535-1.385 5.832-1.289a11.584 11.584 0 0 0-.41-6.828 11.515 11.515 0 0 0 2.15-1.41A11.333 11.333 0 0 0 40 19.888c-1.862-1.405-3.01-2.352-3.746-4.736-.737-2.384-.314-3.8.444-5.982A11.58 11.58 0 0 0 32.2 7.677c-1.01-.117-2.03-.1-3.03.047-.08-1.34-.393-2.659-.927-3.893A11.4 11.4 0 0 0 25.535 0zm9.006 24.054c.678-.349 1.318-.77 1.905-1.258a10.354 10.354 0 0 0 2.265-2.635c-.653-.51-1.249-1.023-1.764-1.621-.712-.826-1.245-1.784-1.649-3.093-.404-1.31-.502-2.4-.376-3.478.092-.782.3-1.535.555-2.316a10.594 10.594 0 0 0-6.295-.919c-.202 4.29-4.819 7.974-7.43 9.724 3.063-.022 9.538.413 12.036 4.262.28.428.532.874.753 1.334zm-13.96-4.243c.056-.121.109-.23.155-.326a27.24 27.24 0 0 1 4.827.207c2.972.404 5.983 1.41 7.386 3.573l.003.004c.253.385.48.786.679 1.2-.327.131-.66.246-1 .344l-.01.003-.008.002c-2.48.765-5.498-.414-8.102-2.035a28.393 28.393 0 0 1-3.93-2.972zm-1.882 1.92c-2.61 2.077-7.523 5.302-11.607 4.043-.378-.11-.75-.238-1.114-.384a10.557 10.557 0 0 0-.512 5.386c.818-.02 1.594 0 2.365.137 1.063.189 2.073.593 3.21 1.346 1.141.756 1.907 1.542 2.497 2.455.427.66.75 1.373 1.055 2.132a10.195 10.195 0 0 0 3.143-1.402c.572-.382 1.104-.82 1.587-1.307a11.43 11.43 0 0 1-.883-1.205c-2.077-3.207-.91-8.033.259-11.202zM20 33.385a10.422 10.422 0 0 1-.717-.992l-.004-.006c-1.406-2.172-1.114-5.385-.292-8.316A27.584 27.584 0 0 1 20 21.141c.337.826.705 1.835 1.013 2.931.822 2.931 1.114 6.144-.292 8.316l-.004.007c-.22.345-.46.676-.717.991zm.677.751c.32-.38.614-.783.883-1.205 2.077-3.207.91-8.033-.259-11.202 2.61 2.078 7.523 5.303 11.607 4.044.378-.11.75-.238 1.114-.384a10.563 10.563 0 0 1 .512 5.386c-.818-.02-1.594 0-2.365.137-1.063.189-2.073.593-3.21 1.346-1.141.756-1.907 1.542-2.497 2.455-.427.66-.75 1.373-1.055 2.132a10.195 10.195 0 0 1-3.143-1.402 10.302 10.302 0 0 1-1.587-1.307zm-2.054-13.636a27.5 27.5 0 0 0 .796-.69c-.056-.121-.109-.23-.155-.326a27.24 27.24 0 0 0-4.827.207c-2.972.404-5.983 1.41-7.386 3.573l-.003.004c-.253.385-.48.786-.679 1.2.327.131.66.246 1 .344l.01.003.008.002c2.48.765 5.499-.414 8.102-2.035a28.393 28.393 0 0 0 3.134-2.282zm-12.411 2.22c2.496-3.847 8.961-4.284 12.027-4.263-2.607-1.75-7.219-5.435-7.42-9.724a10.641 10.641 0 0 0-6.296.92c.255.78.464 1.533.555 2.315.126 1.078.028 2.169-.376 3.478-.404 1.309-.938 2.267-1.649 3.093-.515.598-1.111 1.11-1.764 1.621a10.354 10.354 0 0 0 2.265 2.635c.587.488 1.227.91 1.905 1.258.22-.46.472-.906.753-1.334zM28.178 7.914a10.509 10.509 0 0 0-.853-3.687 10.41 10.41 0 0 0-1.899-2.922c-.678.472-1.34.884-2.061 1.195-.992.426-2.056.642-3.412.642-1.36 0-2.422-.223-3.41-.652-.715-.31-1.371-.72-2.042-1.183A10.42 10.42 0 0 0 12.64 4.23a10.51 10.51 0 0 0-.821 3.683c.238.056.474.12.709.192 4.253 1.259 6.526 6.892 7.472 9.982.946-3.09 3.219-8.723 7.472-9.982.234-.071.469-.135.706-.191zm-6.979 9.71c.25-.742.565-1.579.953-2.435 1.246-2.753 3.09-5.381 5.604-6.125l.008-.003c.133-.04.266-.078.4-.113-.234 2.413-2.106 4.732-4.23 6.59a27.336 27.336 0 0 1-2.735 2.086zm-5.137-2.086a27.323 27.323 0 0 0 2.741 2.093 26.229 26.229 0 0 0-.955-2.442c-1.246-2.753-3.09-5.381-5.604-6.125l-.008-.003c-.133-.04-.266-.078-.4-.113.235 2.414 2.104 4.733 4.226 6.59z" fill="#000"/></svg>
